build/images/Shape.svg

<svg width="30" height="30" viewBox="0 0 30 30" fill="none" xmlns="http://www.w3.org/2000/svg">
<path d="M18.9992 28.4915L18.9992 28.4915C19.83 28.7933 20.6729 28.9427 21.5196 28.9427L18.9992 28.4915ZM18.9992 28.4915C15.0088 27.0419 11.3013 24.679 8.28248 21.6603C5.26371 18.6415 2.90077 14.934 1.45125 10.9436C1.02487 9.76976 0.901029 8.56723 1.07818 7.35927M18.9992 28.4915L22.1739 20.0984M22.1739 20.0984L19.6892 22.5832L19.1783 23.0941L18.5328 22.7694C13.6341 20.3056 9.63705 16.3085 7.17318 11.4099L6.84851 10.7643L7.35945 10.2534L9.84423 7.76869L8.39384 1.00017C7.15745 1.00822 5.99501 1.30384 4.9273 1.87798C3.91206 2.42393 3.01928 3.21824 2.35003 4.17342C1.68374 5.12437 1.24414 6.22772 1.07818 7.35927M22.1739 20.0984L28.9425 21.5488C28.9344 22.7852 28.6388 23.9477 28.0646 25.0154L28.0646 25.0154C27.5186 26.0306 26.7243 26.9234 25.7692 27.5927L25.7691 27.5927C24.8183 28.2589 23.7149 28.6985 22.5833 28.8645L22.5831 28.8645C22.2274 28.9168 21.8725 28.9427 21.5198 28.9427L22.1739 20.0984ZM1.07818 7.35927L0.0887693 7.21415M1.07818 7.35927L0.0887693 7.21415M0.0887693 7.21415C-0.11281 8.58865 0.0294125 9.95825 0.511342 11.285C2.01105 15.4136 4.45374 19.2458 7.57538 22.3674C10.697 25.4889 14.5292 27.9316 18.6577 29.4314M0.0887693 7.21415C0.2776 5.92667 0.776313 4.67678 1.53105 3.59959C2.28912 2.51766 3.29976 1.61778 4.45368 0.997251C5.68421 0.335556 7.02731 0 8.44579 0C8.88696 0 9.26824 0.308246 9.3607 0.739591M18.6577 29.4314L9.86888 7.74404L9.86898 7.74394L9.9144 7.78936L10.8294 7.59333M18.6577 29.4314C19.5949 29.7719 20.5532 29.9427 21.5198 29.9427L18.6577 29.4314ZM9.3607 0.739591L8.44579 0.935643L8.3829 0.949119L8.38291 0.949173L8.44579 0.935696L9.3607 0.739591ZM9.3607 0.739591L10.8294 7.59333M10.8294 7.59333C10.8958 7.90368 10.8005 8.22661 10.5761 8.45105L9.91443 7.78939L10.8294 7.59333Z" stroke="#CCB48A" stroke-width="2"/>
</svg>

<svg width="30" height="30" viewBox="0 0 30 30" fill="none" xmlns="http://www.w3.org/2000/svg"><path d="M19 28.491h0c.83.302 1.673.452 2.52.452L19 28.49zm0 0a29.52 29.52 0 01-10.718-6.83 29.518 29.518 0 01-6.83-10.717 7.282 7.282 0 01-.374-3.585M19 28.492l3.175-8.394m0 0l-2.485 2.485-.51.511-.646-.325a25.629 25.629 0 01-11.36-11.36l-.324-.645.51-.51 2.485-2.485L8.394 1a7.333 7.333 0 00-3.467.878A7.512 7.512 0 002.35 4.173 7.478 7.478 0 001.078 7.36M22.174 20.1l6.768 1.45a7.333 7.333 0 01-.877 3.466h0a7.514 7.514 0 01-2.296 2.578h0a7.478 7.478 0 01-3.186 1.271h0c-.356.053-.71.079-1.063.079l.654-8.845zM1.078 7.358l-.99-.145m.99.145l-.99-.145m0 0a8.282 8.282 0 00.423 4.071 30.517 30.517 0 007.064 11.082 30.52 30.52 0 0011.083 7.064M.088 7.214A8.478 8.478 0 011.532 3.6 8.512 8.512 0 014.454.997 8.338 8.338 0 018.446 0c.441 0 .822.308.915.74m9.297 28.691L9.868 7.744h.001l.045.045.915-.196m7.829 21.838c.937.34 1.895.512 2.862.512l-2.862-.512zM9.36.74l-.915.196-.063.013h0l.063-.013L9.36.74zm0 0l1.468 6.853m0 0a.936.936 0 01-.253.858l-.662-.662.915-.196z" stroke="#CCB48A" stroke-width="2"/></svg>
